!! J.S. Bach; 'Fugue in c minor on a theme by Legrenzi', BWV 574 for organ.
!! Encoded from Novello Book 10, pp. 230-236; in four voices.
!! NOTE:	Eight-voice material occurs at bar 106.  Double-stops occur at
!!       bars 69, 70, 110, 111, 113, 114, 116, and 117.  From bar 115 to
!!       the end, the fugue is displaced by a toccata-like coda.  Bar 114
!!       contains a full cadence, and may be regarded as the end of the fugue.
!!       Bars 114 and 117 contain ties which erroneously cross between voices.
!! Performance duration: 6:39 (to end of bar 114);
!! tempo: quarter-note equals 68.6 MM
!! (Peter Hurford, organist "J.S. Bach; The Organ Works" Vol. 4,
!! Argo No. D177D3)
**kern	**kern	**kern	**kern
*M4/4	*M4/4	*M4/4	*M4/4
*MM69	*MM69	*MM69	*MM69
=1	=1	=1	=1
1r	1r	8r	1r
.	.	8c	.
.	.	8c	.
.	.	8c	.
.	.	4e-	.
.	.	4c	.
=2	=2	=2	=2
1r	1r	8r	1r
.	.	8c	.
.	.	8c	.
.	.	8c	.
.	.	4.e-	.
.	.	16d	.
.	.	16c	.
=3	=3	=3	=3
1r	1r	8d	1r
.	.	8G	.
.	.	4.g	.
.	.	16f#	.
.	.	16en	.
.	.	4f#T	.
=4	=4	=4	=4
1r	8r	4g	1r
.	8G	.	.
.	8G	4r	.
.	8G	.	.
.	4B-	8r	.
.	.	8g	.
.	4G	8g	.
.	.	8g	.
=5	=5	=5	=5
1r	8r	4b-	1r
.	8G	.	.
.	8G	[4g	.
.	8G	.	.
.	4.A-	8g]	.
.	.	8c	.
.	.	[4f	.
.	16G	.	.
.	16F	.	.
=6	=6	=6	=6
1r	8G	4.f]	1r
.	8C	.	.
.	[4c	.	.
.	.	8e-	.
.	8c]	4.d	.
.	16Bn	.	.
.	16An	.	.
.	4B	.	.
.	.	16g	.
.	.	16f	.
=7	=7	=7	=7
8r	4c	4e-	1r
8C	.	.	.
8C	4r	4r	.
8C	.	.	.
4E-	8r	8r	.
.	8c	8e-	.
4C	8c	8e-	.
.	8c	8e-	.
=8	=8	=8	=8
8r	4e-	4g	1r
8C	.	.	.
8C	[4c	8.e-	.
8C	.	.	.
.	.	16f	.
4.E-	8c]	4.g	.
.	8G	.	.
.	[4c	.	.
16D	.	8an	.
16C	.	.	.
=9	=9	=9	=9
8D	4c]	8f#	1r
8GG	.	[8d	.
[4G	4B-	8d]	.
.	.	16e-	.
.	.	16d	.
8G]	4.An	4c	.
16F#	.	.	.
16En	.	.	.
4F	.	[4an	.
.	16d	.	.
.	16c	.	.
=10	=10	=10	=10
4G	4.B-	8a]	1r
.	.	8d	.
8r	.	[4g	.
8E-	16An	.	.
.	16G	.	.
8C	4.A	8g]	.
8AAn	.	16f#	.
.	.	16en	.
8D	.	8.f#	.
8DD	8A	.	.
.	.	16g	.
=11	=11	=11	=11
4GG	8B-	8g	8r
.	8G	8B-	8g
4r	4r	8B-	8g
.	.	8B-	8g
8r	8r	4d	4b-
8GG	8BB-	.	.
8GG	8BB-	4B-	4g
8GG	8BB-	.	.
=12	=12	=12	=12
4BB-	4.D	8r	8r
.	.	8B-	8g
4.GG	.	8B-	8g
.	16G	8B-	8g
.	16F	.	.
.	8E-	4.c	4.a-
8CC	16F	.	.
.	16G	.	.
[4FF	4A-	.	.
.	.	8d	16g
.	.	.	16f
=13	=13	=13	=13
4.FF]	8D	8Bn	8g
.	16E-	16c	8c
.	16F	16d	.
.	4G	8G	[4cc
8EE-	.	8g	.
4.DD	8A-	4.f	8cc]
.	8G	.	16bn
.	.	.	16an
.	8F	.	4b
8GG	8G	16e-	.
.	.	16d	.
=14	=14	=14	=14
4CC	4G	4e-	8cc
.	.	.	8g
8r	4r	8r	[4a-
8C	.	8e-	.
4D	2r	4.f	8a-]
.	.	.	16g
.	.	.	16a-
8r	.	.	[4b-
8D	.	16e-	.
.	.	16f	.
=15	=15	=15	=15
4E-	1r	4.g	8b-]
.	.	.	16a-
.	.	.	16b-
8r	.	.	4.cc
8E-	.	16f	.
.	.	16g	.
4.F	.	4.a-	.
.	.	.	16b-
.	.	.	16cc
.	.	.	8dd
8F	.	16g	8cc
.	.	16a-	.
=16	=16	=16	=16
4.G	1r	8b-	4b-
.	.	8a-	.
.	.	8g	4.ee-
8c	.	16a-	.
.	.	16g	.
8A-	.	4.f	.
8F	.	.	16dd
.	.	.	16cc
8B-	.	.	[4dd
8A-	.	16g	.
.	.	16f	.
=17	=17	=17	=17
4G	1r	4.e-	8dd]
.	.	.	16ee-
.	.	.	16dd
8An	.	.	4.cc
8G	.	16f	.
.	.	16e-	.
8F#	.	8d	.
8D	.	8f#	16d
.	.	.	16cc
8G	.	[4g	16b-
.	.	.	16dd
8BB-	.	.	16gg
.	.	.	16dd
=18	=18	=18	=18
8C	2r	4.g]	16ee-
.	.	.	16dd
8AAn	.	.	16cc
.	.	.	16dd
8D	.	.	8.b-
8D	.	8f#	.
.	.	.	16an
4GG	8r	4g	4g
.	8G	.	.
4r	8G	4r	4r
.	8G	.	.
=19	=19	=19	=19
8r	4B-	1r	8r
8GG	.	.	8b-
8GG	4B-	.	8b-
8GG	.	.	8b-
4BB-	8r	.	4dd
.	8G	.	.
4GG	8G	.	8b-
.	8G	.	[8g
=20	=20	=20	=20
4C	4.A-	1r	8g]
.	.	.	16f
.	.	.	16e-
4D	.	.	4.f
.	16G	.	.
.	16F	.	.
4.E-	8G	.	.
.	8C	.	16e-
.	.	.	16d
.	[4c	.	8e-
8C	.	.	16f
.	.	.	16g
=21	=21	=21	=21
8F	8c]	1r	8a-
8D	16Bn	.	8f
.	16An	.	.
8G	4B	.	8d
8GG	.	.	16g
.	.	.	16f
4C	4.c	.	8e-
.	.	.	16a-
.	.	.	16g
4D	.	.	8f
.	8B-	.	16b-
.	.	.	16a-
=22	=22	=22	=22
4E-	8B-	1r	4g
.	16e-	.	.
.	16d	.	.
4F	8c	.	4a-
.	16f	.	.
.	16e-	.	.
4.G	8d	.	4.b-
.	16c	.	.
.	16B-	.	.
.	[4e-	.	.
8G	.	.	16ee-
.	.	.	16dd
=23	=23	=23	=23
8A-	8e-]	2r	8cc
8F	16a-	.	16ff
.	16g	.	16ee-
8B-	8f	.	8.dd
8BB-	16b-	.	.
.	16a-	.	16ee-
4E-	4g	8r	4ee-
.	.	8e-	.
4EE-	4r	8e-	4r
.	.	8e-	.
=24	=24	=24	=24
8r	8r	4g	1r
8E-	8G	.	.
8E-	8G	4e-	.
8E-	8G	.	.
4G	4B-	8r	.
.	.	8e-	.
4E-	[4G	8e-	.
.	.	8e-	.
=25	=25	=25	=25
4EE-	8G]	4.g	1r
.	8A-	.	.
4E-	8B-	.	.
.	8c	16f	.
.	.	16e-	.
4.BB-	4.d	8f	.
.	.	8B-	.
.	.	[4b-	.
8D	16e-	.	.
.	16f	.	.
=26	=26	=26	=26
8E-	8g	8b-]	1r
8C	16e-	16cc	.
.	16d	16b-	.
8F	8c	8.an	.
8FF	16f	.	.
.	16e-	16a	.
4BB-	4.d	8b-	.
.	.	16cc	.
.	.	16d	.
8r	.	4g	.
8GG	16c	.	.
.	16B-	.	.
=27	=27	=27	=27
8C	8e-	8an	1r
8AAn	8c	16b-	.
.	.	16cc	.
4D	8An	8.f#	.
.	16d	.	.
.	16c	16f#	.
4GG	8Bn	4.g	.
.	16e-	.	.
.	16d	.	.
4AA	8c	.	.
.	16f	[8fn	.
.	16e-	.	.
=28	=28	=28	=28
8BBn	4.d	8f]	1r
8GG	.	16g	.
.	.	16f	.
8C	.	[4e-	.
8GG	16c	.	.
.	16Bn	.	.
8AA-	4.c	8e-]	.
8EE-	.	16f	.
.	.	16g	.
8FF	.	8d	.
8GG	8B-	16e-	.
.	.	16f	.
=29	=29	=29	=29
4C	4c	4e-	8r
.	.	.	8cc
4CC	4r	4r	8cc
.	.	.	8cc
2r	8r	8r	4ee-
.	8c	8e-	.
.	8c	8e-	4cc
.	8c	8e-	.
=30	=30	=30	=30
1r	4e-	4g	8r
.	.	.	8cc
.	4c	[4e-	8cc
.	.	.	8cc
.	4C	8e-]	4.ee-
.	.	8f	.
.	4c	8g	.
.	.	8an	16dd
.	.	.	16cc
=31	=31	=31	=31
1r	8G	4.b-	8dd
.	8B-	.	8g
.	8e-	.	4.gg
.	8d	16cc	.
.	.	16b-	.
.	8c	[2an	.
.	8An	.	16ff#
.	.	.	16een
.	8d	.	8ff#
.	8c	.	16gg
.	.	.	16aan
=32	=32	=32	=32
1r	4.B-	8a]	4.dd
.	.	8d	.
.	.	2g	.
.	8G	.	16ee-
.	.	.	16dd
.	8An	.	8cc
.	8G	.	16dd
.	.	.	16ee-
.	8A-	[4f	8ffn
.	8F	.	16gg
.	.	.	16aa-
=33	=33	=33	=33
1r	4G	4f]	8bn
.	.	.	16an
.	.	.	16g
.	4A-	8e-	4.cc
.	.	16d	.
.	.	16c	.
.	4F	4.d	.
.	.	.	16dd
.	.	.	16cc
.	4G	.	[4b-
.	.	16c	.
.	.	16d	.
=34	=34	=34	=34
8r	4c	4e-	8b-]
8C	.	.	16a-
.	.	.	16g
8C	8r	16r	4.a-
.	.	16d	.
8C	16r	[8e-	.
.	[16c	.	.
4E-	8c]	4e-]	.
.	16B-	.	16g
.	16A-	.	16f
4C	8B-	8en	[4g
.	16A-	16f	.
.	16G	16g	.
=35	=35	=35	=35
8r	8A-	2c	8g]
8C	16G	.	[8f
.	16F	.	.
8C	4G	.	8f]
8C	.	.	16e-
.	.	.	16f
4.E-	8r	8r	8g
.	16E-	16c	8c
.	16F	16d	.
.	8G	8e-	[4cc
8C	16An	16f	.
.	16G	16e-	.
=36	=36	=36	=36
8D	8F#	4.d	4.cc]
8GG	16G	.	.
.	16An	.	.
8G	8B-	.	.
8BB-	16c	[8g	8b-
.	16d	.	.
8C	8e-	4.g]	4.an
8AAn	16c	.	.
.	16B-	.	.
8D	8A	.	.
8DD	16d	8f#	8a
.	16c	.	.
=37	=37	=37	=37
8GG	8Bn	8g	8g
8r	8r	8g	8r
4r	4r	8a-	4r
.	.	16g	.
.	.	16fn	.
2r	2r	8g	2r
.	.	16c	.
.	.	16d	.
.	.	16e-	.
.	.	16d	.
.	.	16e-	.
.	.	16f	.
=38	=38	=38	=38
1r	1r	8g	1r
.	.	8c	.
.	.	4.cc	.
.	.	16dd	.
.	.	16cc	.
.	.	8b-	.
.	.	16cc	.
.	.	16b-	.
=39	=39	=39	=39
1r	1r	16an	2r
.	.	16g	.
.	.	16a	.
.	.	16b-	.
.	.	16a	.
.	.	16cc	.
.	.	16b-	.
.	.	16a	.
.	.	4.g	8r
.	.	.	8dd
.	.	.	8ee-
.	.	8a	16dd
.	.	.	16cc
=40	=40	=40	=40
1r	1r	4b-	8dd
.	.	.	16g
.	.	.	16an
.	.	8r	16b-
.	.	.	16g
.	.	8g	16a
.	.	.	16b-
.	.	8en	8cc
.	.	16f	8f
.	.	16g	.
.	.	8a-	[4ff
.	.	16b-	.
.	.	16a-	.
=41	=41	=41	=41
1r	1r	4.g	8ff]
.	.	.	16gg
.	.	.	16ff
.	.	.	8ee-
.	.	16a-	16ff
.	.	16g	16ee-
.	.	8f	16dd
.	.	.	16cc
.	.	8d	16dd
.	.	.	16ee-
.	.	8g	16dd
.	.	.	16ff
.	.	8f	16ee-
.	.	.	16dd
=42	=42	=42	=42
1r	1r	8e-	16cc
.	.	.	16b-
.	.	8c	16cc
.	.	.	16dd
.	.	8f	16cc
.	.	.	16ee-
.	.	8e-	16dd
.	.	.	16cc
.	.	8d	4.b-
.	.	16en	.
.	.	16f#	.
.	.	[4g	.
.	.	.	16cc
.	.	.	16b-
=43	=43	=43	=43
2r	1r	8g]	16a-
.	.	.	16g
.	.	8c	16a-
.	.	.	16b-
.	.	4.f	16a-
.	.	.	16cc
.	.	.	16b-
.	.	.	16a-
8r	.	.	8g
8G	.	16e-	8bn
.	.	16d	.
8A-	.	8c	16cc
.	.	.	16ee-
8F	.	8a-	16dd
.	.	.	16cc
=44	=44	=44	=44
8G	1r	8d	8bn
8C	.	16e-	8g
.	.	16f	.
8.E-	.	8g	4cc
.	.	16f	.
16F	.	16e-	.
8G	.	8d	4.b-
8C	.	16e-	.
.	.	16f	.
[4c	.	16e-	.
.	.	16d	.
.	.	16c	16an
.	.	16B-	16g
=45	=45	=45	=45
8.c]	1r	8An	16f#
.	.	.	16an
.	.	[8f#	[8dd
16d	.	.	.
8.B-	.	16f#]	8.dd]
.	.	16d	.
.	.	[8g	.
16c	.	.	16ee-
4An	.	16g]	[4cc
.	.	16c	.
.	.	16d	.
.	.	16e-	.
4A-	.	[4fn	16cc]
.	.	.	16dd
.	.	.	16ee-
.	.	.	16ff
=46	=46	=46	=46
8G	2r	8f]	8bn
8C	.	16e-	16cc
.	.	16f	16dd
8G	.	8.d	8.b
8GG	.	.	.
.	.	16c	16cc
8C	8r	8c	4.cc
8r	16c	16e-	.
.	16d	16f	.
4r	8e-	8g	.
.	16d	8an	8cc
.	16c	.	.
=47	=47	=47	=47
1r	8d	8f#	8an
.	16G	[8g	16b-
.	16An	.	16cc
.	16B-	4g_	8.dd
.	16G	.	.
.	16A	.	.
.	16B-	.	16gg
.	8c	8g]	8een
.	8F	[8a-	16ffn
.	.	.	16ee-
.	[4f	4a-]	16dd
.	.	.	16ee-
.	.	.	16dd
.	.	.	16cc
=48	=48	=48	=48
1r	8f]	4g	8bn
.	16g	.	8dd
.	16f	.	.
.	8e-	8r	8gg
.	16f	[8cc	16aa-
.	16e-	.	16gg
.	16d	4cc]	16ff
.	16c	.	16ee-
.	16d	.	16ff
.	16e-	.	16gg
.	16d	4bn	16ff
.	16f	.	16aa-
.	16e-	.	16gg
.	16d	.	16ff
=49	=49	=49	=49
8r	4.c	8cc	16ee-
.	.	.	16ff
8C	.	4g	16ee-
.	.	.	16dd
8E-	.	.	16cc
.	.	.	16dd
8C	8An	16an	16cc
.	.	16g	16b-
8D	[4d	8f#	8an
8GG	.	[8g	16b-
.	.	.	16cc
8.BB-	16d]	8g]	[4dd
.	16c	.	.
.	16d	8r	.
16C	16en	.	.
=50	=50	=50	=50
8D	8f#	1r	4.dd]
8GG	16g	.	.
.	16an	.	.
[4G	4b-	.	.
.	.	.	16ee-
.	.	.	16dd
8.G]	[4a-	.	16cc
.	.	.	16b-
.	.	.	8cc
16An	.	.	.
8.F#	16a-]	.	[4dd
.	16g	.	.
.	8a-	.	.
16G	.	.	.
=51	=51	=51	=51
2E-	[4g	1r	16dd]
.	.	.	16cc
.	.	.	16dd
.	.	.	16ee-
.	16g]	.	4.cc
.	16f#	.	.
.	16g	.	.
.	16an	.	.
8D	8f#	.	.
8GG	16g	.	16b-
.	16a	.	16cc
8D	8f#	.	16an
.	.	.	16cc
8G	8g	.	16b-
.	.	.	16cc
=52	=52	=52	=52
8D	16f#	2r	16an
.	16An	.	16f#
8GG	16B-	.	16g
.	16c	.	16a
8D	8.An	.	8.f#
8DD	.	.	.
.	16G	.	16g
8GG	8G	8r	8g
8r	8G	8g	8r
4r	8A-	8.c	4r
.	16G	.	.
.	16Fn	16d	.
=53	=53	=53	=53
1r	8G	8.e-	1r
.	16C	.	.
.	16D	16f	.
.	16E-	16g	.
.	16D	16f	.
.	16E-	16g	.
.	16F	16a-	.
.	8G	8Bn	.
.	8C	16c	.
.	.	16d	.
.	[4c	16e-	.
.	.	16d	.
.	.	16e-	.
.	.	16f	.
=54	=54	=54	=54
1r	8c]	4d	1r
.	16d	.	.
.	16c	.	.
.	8B-	2g	.
.	16c	.	.
.	16B-	.	.
.	16An	.	.
.	16G	.	.
.	16A	.	.
.	16B-	.	.
.	16A-	[4f	.
.	16c	.	.
.	16B-	.	.
.	16A-	.	.
=55	=55	=55	=55
1r	8G	8f]	8r
.	8c	8en	8cc
.	8F	8f	8dd-
.	8G	[8e-	16cc
.	.	.	16b-
.	8A-	8e-]	8cc
.	8B-	8d-	16f
.	.	.	16g
.	8.F	8c	16a-
.	.	.	16g
.	.	[8f	16a-
.	16G	.	16b-
=56	=56	=56	=56
1r	16A-	8f]	8cc
.	16G	.	.
.	16A-	8r	8f
.	16B-	.	.
.	16An	8r	[4ff
.	16c	.	.
.	16B-	8cc	.
.	16A	.	.
.	8Bn	4.ddn	8ff]
.	8G	.	16gg
.	.	.	16ff
.	8c	.	8ee-
.	8A-	[8cc	16ff
.	.	.	16ee-
=57	=57	=57	=57
1r	8F	4cc]	16dd
.	.	.	16cc
.	8D	.	16dd
.	.	.	16ee-
.	8G	4bn	16dd
.	.	.	16ff
.	8GG	.	16ee-
.	.	.	16dd
.	4C	8c	8.ee-
.	.	8g	.
.	.	.	16dd
.	4r	8a-	8.cc
.	.	16g	.
.	.	16f	16dd
=58	=58	=58	=58
1r	1r	8g	8bn
.	.	16c	8cc
.	.	16d	.
.	.	16e-	8.g
.	.	16d	.
.	.	16e-	.
.	.	16f	16an
.	.	8g	[4b-
.	.	8c	.
.	.	[4cc	16b-]
.	.	.	16b-
.	.	.	16a
.	.	.	16g
=59	=59	=59	=59
1r	1r	8cc]	8f#
.	.	16dd	8d
.	.	16cc	.
.	.	8b-	2g
.	.	16cc	.
.	.	16b-	.
.	.	16an	.
.	.	16g	.
.	.	16a	.
.	.	16b-	.
.	.	16a	4f#
.	.	16cc	.
.	.	16b-	.
.	.	16a	.
=60	=60	=60	=60
1r	1r	16b-	8g
.	.	16an	.
.	.	16b-	8gg
.	.	16g	.
.	.	8a	8ffn
.	.	8bn	16gg
.	.	.	16ff
.	.	8cc	16ee-
.	.	.	16dd
.	.	8cc	16ee-
.	.	.	16ff
.	.	8b-	8gg
.	.	16cc	8een
.	.	16b-	.
=61	=61	=61	=61
1r	1r	16an	8ff
.	.	16g	.
.	.	16a	8ff
.	.	16b-	.
.	.	8cc	8ee-
.	.	8a	16ff
.	.	.	16ee-
.	.	8b-	16dd
.	.	.	16cc
.	.	8b-	16dd
.	.	.	16ee-
.	.	8a-	8ff
.	.	16b-	8dd
.	.	16a-	.
=62	=62	=62	=62
1r	1r	16g	8ee-
.	.	16f	.
.	.	16g	8ee-
.	.	16a-	.
.	.	8b-	8dd
.	.	8g	16ee-
.	.	.	16dd
.	.	8a-	16cc
.	.	.	16b-
.	.	8a-	16cc
.	.	.	16dd
.	.	8g	8ee-
.	.	16a-	8cc
.	.	16g	.
=63	=63	=63	=63
1r	2r	16f	8dd
.	.	16e-	.
.	.	16f	8dd
.	.	16g	.
.	.	8a-	8cc
.	.	8f	16dd
.	.	.	16cc
.	8r	16g	4bn
.	.	16a-	.
.	8G	16g	.
.	.	16f	.
.	8A-	8.e-	8.cc
.	16G	.	.
.	16F	16f	16dd
=64	=64	=64	=64
1r	8G	8d	8bn
.	16C	8e-	8cc
.	16D	.	.
.	16E-	8e-	[4g
.	16D	.	.
.	16E-	16d	.
.	16F	16c	.
.	8G	8Bn	4.g]
.	8C	16c	.
.	.	16d	.
.	[4c	4e-	.
.	.	.	16a-
.	.	.	16g
=65	=65	=65	=65
1r	8c]	4d	4f
.	16d	.	.
.	16c	.	.
.	8B-	4d	8r
.	16c	.	[8gg
.	16B-	.	.
.	4.A-	4.c	8gg]
.	.	.	16aa-
.	.	.	16gg
.	.	.	[4ff
.	8F	16d	.
.	.	16c	.
=66	=66	=66	=66
2r	8G	8Bn	8ff]
.	8C	4c	16ee-
.	.	.	16ff
.	4G	.	8.ddM
.	.	8B	.
.	.	.	16cc
8r	4C	4c	4cc
8C	.	.	.
8E-	8r	8r	8r
8C	8e-	8g	[8cc
=67	=67	=67	=67
8D	4d	8f	8cc]
8GG	.	16g	[8b-
.	.	16f	.
8.AA-	[4c	8en	8b-]
.	.	8f	8a-
16BB-	.	.	.
8C	16c]	8e	8g
.	16B-	.	.
8FF	16A-	[8f	16cc
.	16G	.	16b-
[4F	16F	8f]	8a-
.	16c	.	.
.	16f	8a-	16dd-
.	16e-	.	16cc
=68	=68	=68	=68
8.F]	16d	8.g	8.bn
.	16G	.	.
.	8d	.	.
16G	.	16g	16b
8.E-	16r	8.g	8.cc
.	16G	.	.
.	8c	.	.
16F	.	16a-	16c
8.D	16r	8.f	8.cc
.	16F	.	.
.	8d	.	.
16E-	.	16g	16cc
8.D	16r	8.f	8.b
.	16F	.	.
.	8d	.	.
16E-	.	16g	16b
=69	=69	=69	=69
4C	4G	4e-	[4cc
4r	4r	4r	16cc]
.	.	.	16b-
.	.	.	16a-
.	.	.	32b-
.	.	.	32g
8FF	8c	8f	8a-
8GG	8Bn	16e-	[8g
.	.	16d	.
4AA-	8c	[4c	8g 8cc_
.	8C	.	16f_ 16cc
.	.	.	16f 16dd]
=70	=70	=70	=70
2GG	[2G	4.c]	[8.g 8.ee
.	.	.	16g 16dd]
.	.	.	[8.f 8.ddM
.	.	8Bn	.
.	.	.	16f 16cc]
4CC	8G]	4c	4e 4cc
.	8C	.	.
4r	8C	4r	4r
.	8C	.	.
=71	=71	=71	=71
1r	4E-	8r	1r
.	.	8g	.
.	4C	8a-	.
.	.	16g	.
.	.	16f	.
.	8r	8g	.
.	8C	16c	.
.	.	16d	.
.	8C	16e-	.
.	.	16d	.
.	8C	16e-	.
.	.	16f	.
=72	=72	=72	=72
1r	4.E-	8g	1r
.	.	8c	.
.	.	[4cc	.
.	16D	.	.
.	16C	.	.
.	8D	8cc]	.
.	8GG	16dd	.
.	.	16cc	.
.	[4G	8b-	.
.	.	16cc	.
.	.	16b-	.
=73	=73	=73	=73
2r	8G]	16an	1r
.	.	16g	.
.	16F#	16a	.
.	16En	16b-	.
.	4F	16a	.
.	.	16cc	.
.	.	16b-	.
.	.	16a	.
8r	16G	8g	.
.	16An	.	.
8GG	16b-	16g	.
.	16c	16a	.
8GG	16d	16b-	.
.	16e-	16cc	.
8GG	16d	16b-	.
.	16c	16a	.
=74	=74	=74	=74
4B-	8B-	8g	8r
.	8G	[8b-	8dd
4GG	4r	16b-]	8ee-
.	.	16cc	.
.	.	16b-	16dd
.	.	16an	16cc
8r	16r	8b-	8dd
.	16An	.	.
8GG	16B-	8d	16g
.	16c	.	16an
8GG	16d	[4g	16b-
.	16f	.	16g
8GG	16e-	.	16a
.	16d	.	16bn
=75	=75	=75	=75
4.AA-	[4c	8g]	8cc
.	.	16a-	8f
.	.	16g	.
.	16c]	8f	[4ff
.	16e-	.	.
8FF	16d	8a-	.
.	16c	.	.
8GG	8Bn	16r	8ff]
.	.	16d	.
8CC	8G	16e-	16gg
.	.	16f	16ff
[4C	4c	16g	8ee-
.	.	16e-	.
.	.	16a-	16ff
.	.	16g	16ee-
=76	=76	=76	=76
8C]	4.A-	16f	16dd
.	.	16e-	16cc
8C	.	16f	16dd
.	.	16g	16ee-
4BBn	.	16f	16dd
.	.	16d	16ff
.	[8G	16g	16ee-
.	.	16f	16dd
4C	4G]	16e-	8cc
.	.	16d	.
.	.	16c	8cc
.	.	16d	.
4CC	4r	16e-	8cc
.	.	16d	.
.	.	16e-	8cc
.	.	16f	.
=77	=77	=77	=77
8r	8r	16g	4ee-
.	.	16a-	.
8G	8Bn	16g	.
.	.	16f	.
8A-	16c	8e-	4cc
.	16e-	.	.
8F	16d	16f	.
.	16c	16e-	.
8G	8B	8d	8r
8C	[8c	16e-	8cc
.	.	16f	.
8.E-	16c]	[4g	8cc
.	16d	.	.
.	8e-	.	8cc
16F	.	.	.
=78	=78	=78	=78
8G	8Bn	4.g]	4.ee-
8C	16c	.	.
.	16d	.	.
[4c	4e-	.	.
.	.	8an	16dd
.	.	.	16cc
8.c]	8An	8f#	8dd
.	8r	8d	8g
16d	.	.	.
8.B-	4r	16r	[4gg
.	.	16d	.
.	.	16ee-	.
16c	.	16dd	.
=79	=79	=79	=79
4.An	1r	16cc	8gg]
.	.	16b-	.
.	.	16an	16ff#
.	.	16b-	16een
.	.	16cc	4ff#
.	.	16ee-	.
8D	.	16dd	.
.	.	16cc	.
4.G	.	16b-	8.gg
.	.	16a	.
.	.	16g	.
.	.	16a	16ff#
.	.	16b-	16gg
.	.	16dd	16bb-
8C	.	16cc	16aan
.	.	16b-	16gg
=80	=80	=80	=80
4.D	1r	8an	8ff#
.	.	16b-	16gg
.	.	16cc	16aan
.	.	16dd	4.bb-
.	.	16cc	.
8GG	.	16b-	.
.	.	16a	.
4.E-	.	8g	.
.	.	16a	16aa
.	.	16b-	16gg
.	.	16cc	[4aa
.	.	16b-	.
8C	.	16a	.
.	.	16g	.
=81	=81	=81	=81
4D	1r	8f#	8aa]
.	.	16g	16gg
.	.	16an	16ff#
8G	.	16b-	[4gg
.	.	16cc	.
8BB-	.	16dd	.
.	.	16b-	.
8C	.	16ee-	8gg]
.	.	16dd	.
8AAn	.	16cc	16aan
.	.	16b-	16gg
8D	.	8.a	8.ff#
8DD	.	.	.
.	.	16g	16gg
=82	=82	=82	=82
4GG	8r	8g	4gg
.	8G	16b-	.
.	.	16cc	.
4r	8G	16d	4r
.	.	16cc	.
.	8G	16b-	.
.	.	16an	.
2r	4B-	4g	8r
.	.	.	8dd
.	4G	4r	8ee-
.	.	.	16dd
.	.	.	16cc
=83	=83	=83	=83
1r	8r	1r	8dd
.	8G	.	16g
.	.	.	16an
.	8G	.	16b-
.	.	.	16g
.	8G	.	16a
.	.	.	16b-
.	4.A-	.	8cc
.	.	.	8f
.	.	.	[4ff
.	16G	.	.
.	16F	.	.
=84	=84	=84	=84
1r	8G	1r	8ff]
.	8C	.	16gg
.	.	.	16ff
.	4.c	.	8ee-
.	.	.	16ff
.	.	.	16ee-
.	.	.	16dd
.	.	.	16cc
.	16Bn	.	16dd
.	16An	.	16ee-
.	4B-	.	16dd
.	.	.	16ff
.	.	.	16ee-
.	.	.	16dd
=85	=85	=85	=85
8r	4c	1r	16cc
.	.	.	16ee-
8C	.	.	16gg
.	.	.	16ff
8C	4r	.	16ee-
.	.	.	16ff
8C	.	.	16ee-
.	.	.	16dd
4E-	8r	.	16cc
.	.	.	16bn
.	8G	.	[8cc
4C	8A-	.	16cc]
.	.	.	16cc
.	16G	.	[8ff
.	16F	.	.
=86	=86	=86	=86
8r	8G	1r	16ff]
.	.	.	16dd
8C	16C	.	16ee-
.	16D	.	16ff
8C	16E-	.	16gg
.	16D	.	16ee-
8C	16E-	.	16dd
.	16F	.	16cc
4.E-	8G	.	16bn
.	.	.	16dd
.	8C	.	16cc
.	.	.	16dd
.	[4c	.	16ee-
.	.	.	16b-
8C	.	.	16an
.	.	.	16g
=87	=87	=87	=87
8D	8c]	1r	16f#
.	.	.	16an
8GG	16d	.	16b-
.	16c	.	16a
4.G	8B-	.	16g
.	.	.	16b-
.	16c	.	16a
.	16B-	.	16b-
.	16An	.	16cc
.	16G	.	16b-
8G	16A	.	16cc
.	16B-	.	16dd
4F#	16A	.	16cc
.	16c	.	16ee-
.	16B-	.	16dd
.	16A	.	16cc
=88	=88	=88	=88
4G	16G	8r	4b-
.	16B-	.	.
.	16d	8g	.
.	16c	.	.
4r	16B-	8g	4r
.	16c	.	.
.	16B-	8g	.
.	16An	.	.
8r	16G	4b-	8r
.	16A	.	.
8D	16G	.	4dd
.	16A	.	.
8D	16G	4g	.
.	16B-	.	.
8C	16A	.	[8cc
.	16G	.	.
=89	=89	=89	=89
8D	8F#	8r	8cc]
8GG	8r	8g	16b-
.	.	.	16cc
8.BB-	4r	8g	16dd
.	.	.	16cc
.	.	8g	16dd
16C	.	.	16een
8D	8r	4.b-	16ff#
.	.	.	16aan
8GG	16G	.	16gg
.	16An	.	16ffn
[4G	16B-	.	[4een
.	16c	.	.
.	16d	16an	.
.	16en	16g	.
=90	=90	=90	=90
8.G]	8c#	8an	16ee]
.	.	.	16een
.	[8An	8d	16dd
16An	.	.	16cc#
8.F	8A]	[4dd	16dd
.	.	.	16ff
.	8d	.	16ee
16G	.	.	16dd
4En	4.en	8dd]	16gg
.	.	.	16ff
.	.	16cc#	16gg
.	.	16bn	16aan
4A	.	4cc#	16gg
.	.	.	16bb-
.	8e	.	16aa
.	.	.	16gg
=91	=91	=91	=91
4D	16d	4dd	4ff
.	16en	.	.
.	16f	.	.
.	16g	.	.
8r	16an	8r	8r
.	16f	.	.
8D	16g	[8dd	[8ff
.	16a	.	.
4G	16b-	4dd]	8ff]
.	16a	.	.
.	16g	.	[8een
.	16b-	.	.
4An	16en	[4ccn	8ee]
.	16g	.	.
.	16f#	.	8aa
.	16e	.	.
=92	=92	=92	=92
4F#	16an	4cc]	4.dd
.	16g	.	.
.	16f#	.	.
.	16a	.	.
4G	16d	4bn	.
.	16fn	.	.
.	16e-	.	[8gg
.	16d	.	.
4C	16e-	16cc	4.gg]
.	16d	16b-	.
.	16c	16an	.
.	16e-	16cc	.
4D	16d	4b-	.
.	16e-	.	.
.	16c	.	[8ffn
.	16d	.	.
=93	=93	=93	=93
4GG	16Bn	4.g	4ff]
.	16d	.	.
.	16c	.	.
.	16B	.	.
2C	16c	.	4ee-
.	16B-	.	.
.	16An	8cc	.
.	16c	.	.
.	16F#	4an	4d
.	16A	.	.
.	16G	.	.
.	16F#	.	.
4BB-	16G	8b-	4dd
.	16A	.	.
.	16B-	[8g	.
.	16G	.	.
=94	=94	=94	=94
4AAn	16c	4g]	4cc
.	16d	.	.
.	16c	.	.
.	16B-	.	.
4D	16An	4f#	4cc
.	16c	.	.
.	16B-	.	.
.	16A	.	.
4GG	4G	4g	16b-
.	.	.	16cc
.	.	.	16dd
.	.	.	16an
4r	8r	8r	16b-
.	.	.	16f#
.	8B-	8d	16g
.	.	.	16d
=95	=95	=95	=95
1r	4c	4c	16e-
.	.	.	16fn
.	.	.	16g
.	.	.	16d
.	8r	8r	16e-
.	.	.	16c
.	8An	16r	[8cc
.	.	16en	.
.	8d	8f#	16cc]
.	.	.	16dd
.	8G	4g	16b-
.	.	.	16cc
.	8d	.	8.an
.	8D	8f#	.
.	.	.	16b-
=96	=96	=96	=96
8r	8G	8g	4g
8GG	16G	16B-	.
.	16An	16c	.
8GG	16B-	16d	4r
.	16c	16e-	.
8GG	16B-	16d	.
.	16A	16c	.
4BB-	8G	4B-	8r
.	8B-	.	8dd
4GG	8c	4r	8ee-
.	16B-	.	16dd
.	16A	.	16cc
=97	=97	=97	=97
8r	16B-	4r	8dd
.	16c	.	.
8GG	16B-	.	16g
.	16An	.	16an
8GG	[4G	16r	16b-
.	.	16B-	16g
8GG	.	16c	16a
.	.	16d	16bn
4.AA-	8G]	[4c	8cc
.	16A-	.	8f
.	16G	.	.
.	8F	16c]	[4ff
.	.	16e-	.
8FF	8A-	16d	.
.	.	16c	.
=98	=98	=98	=98
8GG	8D	16Bn	8ff]
.	.	16An	.
8CC	16E-	8G	16gg
.	16F	.	16ff
4.C	8G	4c	8ee-
.	16A-	.	16ff
.	16G	.	16ee-
.	16F	4d	16dd
.	16E-	.	16cc
8C	16F	.	16dd
.	16G	.	16ee-
4Bn	16F	[4g	16dd
.	16A-	.	16ff
.	16G	.	16ee-
.	16F	.	16dd
=99	=99	=99	=99
4C	4E-	16g]	4cc
.	.	16a-	.
.	.	16g	.
.	.	16f	.
8r	8r	16e-	8r
.	.	16d	.
8C	[8E-	16c	[8g
.	.	16B-	.
4FF	16E-]	4A-	4g]
.	16E-	.	.
.	16F	.	.
.	16G	.	.
8r	16F	8r	8r
.	16E-	.	.
8FF	16D	8A-	[8f
.	16C	.	.
=100	=100	=100	=100
4GG	4BBn	4G	16f]
.	.	.	16f
.	.	.	16g
.	.	.	16a-
8r	8r	8r	16g
.	.	.	16f
8GG	8BB-	8G	16e-
.	.	.	16d
4CC	16C	4G	8e-
.	16D	.	.
.	16E-	.	16c
.	16F	.	16d
4r	16G	4r	16e-
.	16An	.	16f
.	16Bn	.	16g
.	16c	.	16an
=101	=101	=101	=101
1r	16d	1r	16bn
.	16Bn	.	16g
.	16c	.	16an
.	16d	.	16b
.	16e-	.	16cc
.	16f	.	16dd
.	16g	.	16ee-
.	16an	.	16ff
.	16bn	.	16gg
.	16g	.	16ff
.	16a	.	16ee-
.	16b	.	16dd
.	16cc	.	16ee-
.	16b-	.	16gg
.	16a-	.	16ff
.	16g	.	16ee-
=102	=102	=102	=102
1r	16f	1r	16dd
.	16a-	.	16cc
.	16g	.	16bn
.	16f	.	16dd
.	16e-	.	16cc
.	16d	.	16b-
.	16c	.	16a-
.	16e-	.	16g
.	16d	.	16f
.	16c	.	16a-
.	16Bn	.	16g
.	16d	.	16f
.	16c	.	16e-
.	16B-	.	16g
.	16A-	.	16f
.	16G	.	16e-
=103	=103	=103	=103
1r	16F	1r	16d
.	16E-	.	16c
.	16D	.	16f
.	16C	.	16e-
.	16Bn	.	16d
.	16E-	.	16c
.	16D	.	16Bn
.	16F	.	16An
.	16E-	.	16G
.	16F	.	16B
.	16E-	.	16c
.	16D	.	16d
.	16C	.	16e-
.	16D	.	16f
.	16E-	.	16g
.	[16F	.	16a-
=104	=104	=104	=104
2GG	8F]	16r	8Bn
.	.	[8.G	.
.	16E-	.	16c
.	16F	.	16d
.	8.D	4G]	8.B
.	16En	.	16c
8CC	8E	8G	8c
8r	8r	8r	8r
4r	4r	4r	4r
=105	=105	=105	=105
1r	1r	1r	32r
.	.	.	32gg
.	.	.	32aa-
.	.	.	32gg
.	.	.	32ff
.	.	.	32aa-
.	.	.	32gg
.	.	.	32ff
.	.	.	32gg
.	.	.	32dd
.	.	.	32ee-
.	.	.	32ff
.	.	.	32ee-
.	.	.	32dd
.	.	.	32ee-
.	.	.	32bn
.	.	.	32cc
.	.	.	32g
.	.	.	32an
.	.	.	32b
.	.	.	32cc
.	.	.	32dd
.	.	.	32ee-
.	.	.	32ff
.	.	.	32gg
.	.	.	32aan
.	.	.	32bbn
.	.	.	32gg
.	.	.	16ccc
.	.	.	16r
!! Eight voices for the next bar:
*^	*^	*^	*^
=106	=106	=106	=106	=106	=106	=106	=106
2EEn	16r	8r	8.r	4r	4r	4r	4r
.	[8.C	.	.	.	.	.	.
.	.	[8En	.	.	.	.	.
.	.	.	[16G	.	.	.	.
.	4C]	4E]	4G]	4c	16r	8r	8.r
.	.	.	.	.	8.en	.	.
.	.	.	.	.	.	8g	.
.	.	.	.	.	.	.	16b-
8.En	2r	2r	2r	2r	2r	2r	2r
16G	.	.	.	.	.	.	.
32E	.	.	.	.	.	.	.
32G	.	.	.	.	.	.	.
32E	.	.	.	.	.	.	.
32G	.	.	.	.	.	.	.
32E	.	.	.	.	.	.	.
32G	.	.	.	.	.	.	.
16E	.	.	.	.	.	.	.
!! Back to four voices:
=107	=107	=107	=107	=107	=107	=107	=107
*v	*v	*	*	*	*	*	*
*	*v	*v	*	*	*	*
*	*	*v	*v	*	*
*	*	*	*v	*v
1F	16r	16r	1r
.	32c	32a-	.
.	32B-	32g	.
.	16A-	16f	.
.	16c	16a-	.
.	32G	32en	.
.	32B-	32g	.
.	32G	32e	.
.	32B-	32g	.
.	32G	32e	.
.	32B-	32g	.
.	32G	32e	.
.	32B-	32g	.
.	16A-	16f	.
.	32A-	32cc	.
.	32G	32b-	.
.	16F	16a-	.
.	16A-	16cc	.
.	32En	32g	.
.	32G	32b-	.
.	32En	32g	.
.	32G	32b-	.
.	32En	32g	.
.	32G	32b-	.
.	32En	32g	.
.	32G	32b-	.
=108	=108	=108	=108
[1F	8F	8an	16r
.	.	.	32ff
.	.	.	32ee-
.	8f	8b-	16dd-
.	.	.	[16ff
.	32e-	32a-	4ff]
.	32f	32cc	.
.	32e-	32a-	.
.	32f	32cc	.
.	32e-	32a-	.
.	32f	32cc	.
.	32e-	32a-	.
.	32f	32cc	.
.	16d-	4b-	16r
.	32d-	.	32ff
.	32c	.	32ee-
.	16B-	.	16dd
.	16d-	.	16ff
.	32An	16cc	32ee-
.	32c	.	32ff
.	32An	16cc	32ee-
.	32c	.	32ff
.	32An	16cc	32ee-
.	32c	.	32ff
.	32An	16cc	32ee-
.	32c	.	32ff
=109	=109	=109	=109
2F]	16B-	1r	16dd-
.	32dd-	.	32bb-
.	32cc	.	32aa-
.	16b-	.	16gg
.	16dd-	.	16bb-
.	32g	.	32een
.	32b-	.	32gg
.	32g	.	32ee
.	32b-	.	32gg
.	32g	.	32ee
.	32b-	.	32gg
.	32g	.	32ee
.	32b-	.	32gg
2FF	16a-	.	16ff
.	32a-	.	32ff
.	32g	.	32ee-
.	16f	.	16ddn
.	16a-	.	16ff
.	32dn	.	32bn
.	32f	.	32dd
.	32dn	.	32bn
.	32f	.	32dd
.	32dn	.	32bn
.	32f	.	32dd
.	32dn	.	32bn
.	32f	.	32dd
=110	=110	=110	=110
[1CC	16e-	4r	16cc
.	32e-	.	32gg
.	32dd	.	32ff
.	16c	.	16ee-
.	16e-	.	16gg
.	32Bn	16dd	32ff
.	32d	.	32gg
.	32Bn	16dd	32ff
.	32d	.	32gg
.	32Bn	16dd	32ff
.	32d	.	32gg
.	32Bn	16dd	32ff
.	32d	.	32gg
.	16G 16c	16cc	16ee
.	32g	8.r	32ee
.	32f	.	32dd
.	16e	.	16cc
.	16g	.	16ee
.	32d	4r	32bn
.	32f	.	32dd
.	32d	.	32bn
.	32f	.	32dd
.	32d	.	32bn
.	32f	.	32dd
.	32d	.	32bn
.	32f	.	32dd
=111	=111	=111	=111
2CC]	16e-	16r	4cc
.	32e-	32g	.
.	32d	32f	.
.	16c	16e-	.
.	16e-	16g	.
.	32d	32f	16dd
.	32Bn	32g	.
.	32d	32f	16dd
.	32Bn	32g	.
.	32d	32f	16dd
.	32Bn	32g	.
.	32d	32f	16dd
.	32Bn	32g	.
8C	8c 8e-	8g	8cc 8ee-
8E-	8r	8r	8r
8C	8r	4r	32r
.	.	.	32ee-
.	.	.	32gg
.	.	.	32ee-
8E-	32r	.	16cc
.	32g	.	.
.	32cc	.	16r
.	32g	.	.
=112	=112	=112	=112
8C	16e-	1r	32r
.	.	.	32cc
.	16r	.	32cc
8E-	32r	.	16g
.	32c	.	.
.	32e-	.	16r
.	32c	.	.
8C	16G	.	32r
.	.	.	32e-
.	16r	.	32g
.	.	.	32e-
8E-	32r	.	16c
.	32G	.	.
.	32c	.	16r
.	32G	.	.
8C	32E-	.	8r
.	32C	.	.
.	32E-	.	.
.	32G	.	.
8E-	16c	.	32r
.	16r	.	32G
.	.	.	32c
.	.	.	32e-
8C	32r	.	16g
.	32c	.	.
.	32e-	.	16r
.	32g	.	.
8E-	16cc	.	32r
.	.	.	32ee-
.	16r	.	32gg
.	.	.	[32ccc
=113	=113	=113	=113
2AA	8c 8e-	8g 8cc	32ccc]
.	.	.	32bb-
.	.	.	32aa-
.	.	.	32gg
.	8r	8r	32ff
.	.	.	32ee-
.	.	.	32dd
.	.	.	32cc
.	8r	32r	[4ff
.	.	32ee-	.
.	.	32dd	.
.	.	[32cc	.
.	32b-	8cc]	.
.	32a-	.	.
.	32g	.	.
.	32f	.	.
[2GG	32r	4g 4bn	4ff]
.	32f	.	.
.	32e-	.	.
.	32d	.	.
.	32c	.	.
.	32Bn	.	.
.	32An	.	.
.	32G	.	.
.	32c	4g 4cc	4ee-
.	32B-	.	.
.	32A-	.	.
.	32G	.	.
.	32F	.	.
.	32E-	.	.
.	32D	.	.
.	32C	.	.
=114	=114	=114	=114
2GG]	[4F#	16r	8r
.	.	8.An	.
.	.	.	[16c 16r
.	.	.	16c_ 16e-
.	8.F#]	16A	8c 8d_
.	.	8.A	.
.	.	.	8c_ 8d
.	16F#	.	.
!! Notice that the tie from voice four fails to link correctly to voice 3 below.
[2GG	[4G	16c	8d]
.	.	8c	.
.	.	.	[8d
.	.	16An	.
.	4G]	4Bn	4d]x
!! This work continues with a toccata, but the fugue stops here.
==	==	==	==
*-	*-	*-	*-
